X:1
T:Ecossaise No 2
T:Ecossaise No 2
T:D.781
T:Franz Schubert
T:Public Domain (PianoXML typeset) | 11 Ecossaise D.781 (1823)
C:Franz Schubert
Z:Public Domain (PianoXML typeset) | 11 Ecossaise D.781 (1823)
%%score { ( 1 3 4 ) | 2 }
L:1/8
M:2/4
K:D
V:1 treble nm="Piano" snm="Pno."
V:3 treble 
V:4 treble 
V:2 bass 
V:1
!p! (Ad cd | A2 [da]2 | !wedge!B2)!f! !wedge![Bdb]2 | [Ada]4 | e'4 | f4 |!>(! ([aa']2 g'!>)!e') | %7
 !wedge!d'2 z2 ::!f! (d'2 af) | (d'2 bg) | (e'2"_cresc." d'^g) | (e'2 c'a) |!ff! a'2 e'c' | %13
 b'2 f'd' | a'2 g'e' | d'2 z2 :| %16
V:2
 D,2 [F,A,D]2 | D,2 [F,A,D]2 | D,2 [D,G,B,D]2 | [D,F,A,D]4 | C,2 [G,A,E]2 | D,2 [F,A,D]2 | %6
 A,,2 [G,A,C]2 | [D,F,A,D]2 z2 :: !wedge!=C,2 [F,A,D]2 | !wedge!B,,2 [G,B,D]2 | %10
 !wedge!_B,,2 [E,^G,D]2 | A,,2 [E,A,C]2 | =G,,2 [C,E,A,]2 | F,,2 [D,F,A,]2 | A,,2 [G,A,C]2 | %15
 [D,F,A,D]2 z2 :| %16
V:3
 x4 | A4 | x4 | x4 | ea ba | f'4 | x4 | x4 :: !>!d4 | !>!d4 | !>!e4 | !>!e4 | !>!a4 | b4 | (a4 | %15
 d'2) x2 :| %16
V:4
 x4 | x4 | x4 | x4 | (e4 | f2 a2) | x4 | x4 :: x4 | x4 | x4 | x4 | x4 | x4 | x4 | x4 :| %16

